assets/img/braze_icons/check-verified-02.svg

<svg fill="none" height="24" viewBox="0 0 24 24" width="24" xmlns="http://www.w3.org/2000/svg"><path clip-rule="evenodd" d="m2.0315 12c-.0003-.1338-.02658-.2675-.07885-.3935l-.72144-1.74675c-.15242-.36787-.23115-.76276-.23121-1.16096-.000064-.39841.07838-.79294.23084-1.16103s.37596-.70253.65772-.98421c.28169-.28161.61609-.50497.98411-.65732l1.74393-.72239c.25256-.10443.454-.30497.55915-.55725l.72255-1.74445c.30778-.74309.89815-1.33348 1.64123-1.64129.74308-.307801 1.578-.307802 2.32108 0l1.74309.72205c.253.10443.5373.1043.7901-.00059l.002-.00082 1.7446-.71957c.7428-.307391 1.5779-.307491 2.3207.00017.7429.30775 1.3332.89797 1.641 1.64086l.7052 1.70257c.0063.01344.0123.02707.018.04089.1045.25283.3051.45383.5577.55889l1.7449.7228c.7431.30781 1.3335.8982 1.6413 1.64129.3077.74308.3077 1.578 0 2.32109l-.7224 1.74402c-.0525.1266-.0787.2616-.0787.3958s.0262.2686.0787.3952l.7224 1.744c.3077.7431.3077 1.578 0 2.3211-.3078.7431-.8982 1.3335-1.6413 1.6413l-1.7449.7228c-.2526.1051-.4532.3061-.5577.5589-.0057.0138-.0117.0274-.018.0409l-.7052 1.7025c-.3078.7429-.8981 1.3332-1.641 1.6409-.7428.3077-1.5779.3076-2.3207.0002l-1.7446-.7196-.002-.0008c-.2528-.1049-.5371-.105-.7901-.0006l-1.74309.722c-.74308.3079-1.578.3079-2.32108 0-.74308-.3078-1.33345-.8982-1.64123-1.6412l-.72255-1.7445c-.10515-.2523-.30659-.4528-.55915-.5572l-1.74393-.7224c-.36802-.1524-.70242-.3757-.98411-.6573-.28176-.2817-.50526-.6162-.65772-.9843s-.230904-.7626-.23084-1.161c.00006-.3982.07879-.7931.23121-1.161l.72144-1.7467c.05227-.126.07855-.2597.07885-.3935zm14.1756-1.7929c.3905-.39052.3905-1.02368 0-1.41421-.3905-.39052-1.0237-.39052-1.4142 0l-3.7929 3.79291-1.29289-1.2929c-.39053-.3905-1.02369-.3905-1.41422 0-.39052.3905-.39052 1.0237 0 1.4142l2.00001 2c.3905.3905 1.0237.3905 1.4142 0z" fill="#801ed7" fill-rule="evenodd"/></svg>

<svg width="24" height="24" viewBox="0 0 24 24" fill="none" xmlns="http://www.w3.org/2000/svg">
<path fill-rule="evenodd" clip-rule="evenodd" d="M2.0315 12C2.0312 11.8662 2.00492 11.7325 1.95265 11.6065L1.23121 9.85975C1.07879 9.49188 1.00006 9.09699 1 8.69879C0.999936 8.30038 1.07838 7.90585 1.23084 7.53776C1.3833 7.16967 1.6068 6.83523 1.88856 6.55355C2.17025 6.27194 2.50465 6.04858 2.87267 5.89623L4.6166 5.17384C4.86916 5.06941 5.0706 4.86887 5.17575 4.61659L5.8983 2.87214C6.20608 2.12905 6.79645 1.53866 7.53953 1.23085C8.28261 0.923049 9.11753 0.923048 9.86061 1.23085L11.6037 1.9529C11.8567 2.05733 12.141 2.0572 12.3938 1.95231L12.3958 1.95149L14.1404 1.23192C14.8832 0.924529 15.7183 0.924429 16.4611 1.23209C17.204 1.53984 17.7943 2.13006 18.1021 2.87295L18.8073 4.57552C18.8136 4.58896 18.8196 4.60259 18.8253 4.61641C18.9298 4.86924 19.1304 5.07024 19.383 5.1753L21.1279 5.8981C21.871 6.20591 22.4614 6.7963 22.7692 7.53939C23.0769 8.28247 23.0769 9.11739 22.7692 9.86048L22.0468 11.6045C21.9943 11.7311 21.9681 11.8661 21.9681 12.0003C21.9681 12.1345 21.9943 12.2689 22.0468 12.3955L22.7692 14.1395C23.0769 14.8826 23.0769 15.7175 22.7692 16.4606C22.4614 17.2037 21.871 17.7941 21.1279 18.1019L19.383 18.8247C19.1304 18.9298 18.9298 19.1308 18.8253 19.3836C18.8196 19.3974 18.8136 19.411 18.8073 19.4245L18.1021 21.127C17.7943 21.8699 17.204 22.4602 16.4611 22.7679C15.7183 23.0756 14.8832 23.0755 14.1404 22.7681L12.3958 22.0485L12.3938 22.0477C12.141 21.9428 11.8567 21.9427 11.6037 22.0471L9.86061 22.7691C9.11753 23.077 8.28261 23.077 7.53953 22.7691C6.79645 22.4613 6.20608 21.8709 5.8983 21.1279L5.17575 19.3834C5.0706 19.1311 4.86916 18.9306 4.6166 18.8262L2.87267 18.1038C2.50465 17.9514 2.17025 17.7281 1.88856 17.4465C1.6068 17.1648 1.3833 16.8303 1.23084 16.4622C1.07838 16.0941 0.999936 15.6996 1 15.3012C1.00006 14.903 1.07879 14.5081 1.23121 14.1402L1.95265 12.3935C2.00492 12.2675 2.0312 12.1338 2.0315 12ZM16.2071 10.2071C16.5976 9.81658 16.5976 9.18342 16.2071 8.79289C15.8166 8.40237 15.1834 8.40237 14.7929 8.79289L11 12.5858L9.70711 11.2929C9.31658 10.9024 8.68342 10.9024 8.29289 11.2929C7.90237 11.6834 7.90237 12.3166 8.29289 12.7071L10.2929 14.7071C10.6834 15.0976 11.3166 15.0976 11.7071 14.7071L16.2071 10.2071Z" fill="#801ED7"/>
</svg>
